archdroid-icon-theme/Archdroid-Yellow/status/scalable/security-low.svg

<?xml version="1.0" encoding="UTF-8" standalone="no"?>
<svg
   xmlns:dc="http://purl.org/dc/elements/1.1/"
   xmlns:cc="http://creativecommons.org/ns#"
   xmlns:rdf="http://www.w3.org/1999/02/22-rdf-syntax-ns#"
   xmlns:svg="http://www.w3.org/2000/svg"
   xmlns="http://www.w3.org/2000/svg"
   xmlns:sodipodi="http://sodipodi.sourceforge.net/DTD/sodipodi-0.dtd"
   xmlns:inkscape="http://www.inkscape.org/namespaces/inkscape"
   fill="#FFEB3B"
   width="48"
   height="48"
   viewBox="0 0 48 48"
   id="svg2"
   version="1.1"
   inkscape:version="0.91 r13725"
   sodipodi:docname="security-low.svg">
  <metadata
     id="metadata10">
    <rdf:RDF>
      <cc:Work
         rdf:about="">
        <dc:format>image/svg+xml</dc:format>
        <dc:type
           rdf:resource="http://purl.org/dc/dcmitype/StillImage" />
      </cc:Work>
    </rdf:RDF>
  </metadata>
  <defs
     id="defs8" />
  <sodipodi:namedview
     pagecolor="#ffffff"
     bordercolor="#666666"
     borderopacity="1"
     objecttolerance="10"
     gridtolerance="10"
     guidetolerance="10"
     inkscape:pageopacity="0"
     inkscape:pageshadow="2"
     inkscape:window-width="1366"
     inkscape:window-height="713"
     id="namedview6"
     showgrid="false"
     inkscape:snap-bbox="true"
     inkscape:bbox-nodes="true"
     inkscape:zoom="3.08975919576808"
     inkscape:cx="-48.03869639821004"
     inkscape:cy="-5.311731042901258"
     inkscape:window-x="0"
     inkscape:window-y="30"
     inkscape:window-maximized="1"
     inkscape:current-layer="svg2" />
  <path
     d="M 24,2 6,10 6,22 C 6,33.11 13.67,43.47 24,46 34.33,43.47 42,33.11 42,22 l 0,-12 z m 0,4.380859375 14,6.21875 L 38,23.98046875 38,24 37.99609375,24 C 36.9298543843353,32.23195795962643 31.44403366653019,39.56144332179811 24,41.849609375 16.5559663334698,39.56144332179811 11.07014561566469,32.23195658536906 10.00390625,24 L 10,24 10,23.98046875 10,12.599609375 Z"
     id="path4140"
     inkscape:connector-curvature="0"
     sodipodi:nodetypes="ccscsccccccccccccc"
     style="fill:#f44336;fill-opacity:1" />
  <g
     id="g4148"
     transform="translate(0.0050000000000008,-2.995000000000012)">
    <path
       id="path4144"
       d="m 25.995,35.99500000000001 -4,0 L 21.995,31.995 l 4,0 0,4.00000000000001 z"
       style="fill:#f44336"
       inkscape:connector-curvature="0" />
    <path
       id="path4"
       d="m 25.995,27.99499999999999 -4,0 L 21.995,17.995 l 4,0 0,10 z"
       style="fill:#f44336"
       inkscape:connector-curvature="0" />
  </g>
</svg>

<svg xmlns="http://www.w3.org/2000/svg" fill="#FFEB3B" viewBox="0 0 48 48"><g fill="#f44336"><path d="m24 2l-18 8v12c0 11.11 7.67 21.47 18 24 10.33-2.53 18-12.89 18-24v-12zm0 4.381l14 6.219v11.381.02h-.004c-1.066 8.232-6.552 15.561-13.996 17.85-7.444-2.288-12.93-9.618-13.996-17.85h-.004v-.02-11.381"/><g transform="translate(.005-2.995)"><path d="m25.995 35.995h-4v-4h4v4"/><path d="m25.995 27.995h-4v-10h4v10"/></g></g></svg>
